_includes/icons/ios-forward-arrow-2.svg

<svg fill="#666" height="50" viewBox="0 0 50 50" width="50" xmlns="http://www.w3.org/2000/svg"><path d="m29.84375 13.09375c-.375.066406-.675781.339844-.78125.703125-.105469.367188.003906.757813.28125 1.015625l9.1875 9.1875h-29.53125c-.03125 0-.0625 0-.09375 0-.550781.027344-.980469.496094-.953125 1.046875s.496094.980469 1.046875.953125h29.53125l-9.1875 9.1875c-.296875.242188-.433594.628906-.347656 1.003906.085937.371094.378906.664063.75.75.375.085938.761719-.050781 1.003906-.347656l10.90625-10.875.6875-.71875-.6875-.71875-10.90625-10.875c-.207031-.222656-.507812-.335937-.8125-.3125-.03125 0-.0625 0-.09375 0z"/></svg>

<svg xmlns="http://www.w3.org/2000/svg" viewBox="0 0 50 50" width="50" height="50" fill="#666"><path d="M 29.84375 13.09375 C 29.46875 13.160156 29.167969 13.433594 29.0625 13.796875 C 28.957031 14.164063 29.066406 14.554688 29.34375 14.8125 L 38.53125 24 L 9 24 C 8.96875 24 8.9375 24 8.90625 24 C 8.355469 24.027344 7.925781 24.496094 7.953125 25.046875 C 7.980469 25.597656 8.449219 26.027344 9 26 L 38.53125 26 L 29.34375 35.1875 C 29.046875 35.429688 28.910156 35.816406 28.996094 36.191406 C 29.082031 36.5625 29.375 36.855469 29.746094 36.941406 C 30.121094 37.027344 30.507813 36.890625 30.75 36.59375 L 41.65625 25.71875 L 42.34375 25 L 41.65625 24.28125 L 30.75 13.40625 C 30.542969 13.183594 30.242188 13.070313 29.9375 13.09375 C 29.90625 13.09375 29.875 13.09375 29.84375 13.09375 Z"/></svg>
